flaticon/design/edit-2.svg

<svg xmlns="http://www.w3.org/2000/svg" width="32" height="32" viewBox="0 0 24 24">
    <path d="M14.898438 11.6875L17.113281 11.09375 5.050781.300781 0 15.679688 2.214844 15.085938C2.941406 14.890625 3.703125 14.992188 4.355469 15.367188 5.007812 15.746094 5.476562 16.351562 5.671875 17.082031L6.300781 19.425781 6.917969 21.730469 14.148438 19.792969 13.324219 16.710938 12.902344 15.140625C12.707031 14.414062 12.808594 13.65625 13.183594 13 13.5625 12.347656 14.171875 11.882812 14.898438 11.6875zM7.488281 20.746094L7.078125 19.21875 9.914062 18.457031 12.753906 17.699219 13.164062 19.222656zM12.488281 12.597656C12.003906 13.4375 11.875 14.417969 12.125 15.351562L12.542969 16.917969 6.871094 18.441406 6.449219 16.871094C6.199219 15.9375 5.597656 15.152344 4.757812 14.671875 4.199219 14.347656 3.582031 14.183594 2.953125 14.183594 2.636719 14.183594 2.320312 14.222656 2.007812 14.308594L1.230469 14.515625 5.203125 2.425781 7.476562 10.914062C7.171875 11.074219 6.914062 11.3125 6.738281 11.621094 6.496094 12.042969 6.429688 12.539062 6.554688 13.011719 6.683594 13.484375 6.984375 13.882812 7.410156 14.125 7.695312 14.289062 8.007812 14.371094 8.324219 14.371094 8.484375 14.371094 8.644531 14.351562 8.804688 14.308594 9.78125 14.046875 10.363281 13.039062 10.101562 12.0625 9.972656 11.589844 9.671875 11.191406 9.246094 10.949219 8.941406 10.773438 8.597656 10.691406 8.253906 10.707031L5.980469 2.214844 15.464844 10.703125 14.6875 10.910156C13.753906 11.160156 12.972656 11.761719 12.488281 12.597656zM8.0625 11.542969C8.152344 11.519531 8.242188 11.507812 8.332031 11.507812 8.507812 11.507812 8.683594 11.554688 8.84375 11.644531 9.082031 11.785156 9.25 12.003906 9.324219 12.269531 9.46875 12.820312 9.144531 13.382812 8.59375 13.53125 8.328125 13.601562 8.054688 13.566406 7.816406 13.429688 7.578125 13.289062 7.40625 13.066406 7.335938 12.804688 7.265625 12.539062 7.300781 12.261719 7.4375 12.023438 7.574219 11.785156 7.796875 11.613281 8.0625 11.542969zM19.566406 14.828125C17.121094 14.828125 15.128906 16.820312 15.128906 19.265625 15.128906 21.710938 17.121094 23.699219 19.566406 23.699219 22.011719 23.699219 24 21.710938 24 19.265625 24 16.820312 22.011719 14.828125 19.566406 14.828125zM19.566406 22.894531C17.566406 22.894531 15.9375 21.265625 15.9375 19.265625 15.9375 17.261719 17.566406 15.636719 19.566406 15.636719 21.566406 15.636719 23.195312 17.261719 23.195312 19.265625 23.195312 21.265625 21.566406 22.894531 19.566406 22.894531zM19.566406 22.894531"/>
    <path d="M 21.984375 18.859375 L 19.96875 18.859375 L 19.96875 16.84375 C 19.96875 16.621094 19.789062 16.441406 19.566406 16.441406 C 19.34375 16.441406 19.160156 16.621094 19.160156 16.84375 L 19.160156 18.859375 L 17.144531 18.859375 C 16.921875 18.859375 16.742188 19.042969 16.742188 19.265625 C 16.742188 19.488281 16.921875 19.667969 17.144531 19.667969 L 19.160156 19.667969 L 19.160156 21.683594 C 19.160156 21.90625 19.34375 22.085938 19.566406 22.085938 C 19.789062 22.085938 19.96875 21.90625 19.96875 21.683594 L 19.96875 19.667969 L 21.984375 19.667969 C 22.207031 19.667969 22.386719 19.488281 22.386719 19.265625 C 22.386719 19.042969 22.207031 18.859375 21.984375 18.859375 Z M 21.984375 18.859375"/>
</svg>

<svg xmlns="http://www.w3.org/2000/svg" width="32" height="32" viewBox="0 0 24 24">
    <path d="M14.898 11.688l2.215-.594L5.051.3 0 15.68l2.215-.594a2.81 2.81 0 0 1 2.14.281 2.81 2.81 0 0 1 1.317 1.715l.629 2.344.617 2.304 7.23-1.937-.824-3.082-.422-1.57a2.815 2.815 0 0 1 1.996-3.453zm-7.41 9.058l-.41-1.527 2.836-.762 2.84-.758.41 1.524zm5-8.148a3.613 3.613 0 0 0-.363 2.754l.418 1.566-5.672 1.523-.422-1.57a3.59 3.59 0 0 0-1.691-2.2 3.578 3.578 0 0 0-2.75-.362l-.778.207 3.973-12.09 2.274 8.488a1.81 1.81 0 0 0-.739.707 1.839 1.839 0 0 0-.183 1.39c.129.473.43.872.855 1.114a1.825 1.825 0 0 0 1.395.184 1.836 1.836 0 0 0 1.297-2.246 1.819 1.819 0 0 0-.856-1.114 1.818 1.818 0 0 0-.992-.242L5.98 2.215l9.485 8.488-.777.207a3.608 3.608 0 0 0-2.2 1.688zm-4.425-1.055a1.046 1.046 0 0 1 .781.102c.238.14.406.359.48.625a1.033 1.033 0 0 1-1.508 1.16 1.03 1.03 0 0 1 .246-1.887zm0 0M19.566 14.828a4.444 4.444 0 0 0-4.437 4.438 4.441 4.441 0 0 0 4.437 4.433A4.438 4.438 0 0 0 24 19.266a4.441 4.441 0 0 0-4.434-4.438zm0 8.067c-2 0-3.628-1.63-3.628-3.63a3.632 3.632 0 0 1 3.628-3.628c2 0 3.63 1.625 3.63 3.629 0 2-1.63 3.629-3.63 3.629zm0 0"/>
    <path d="M21.984 18.86H19.97v-2.016a.405.405 0 0 0-.809 0v2.015h-2.015a.405.405 0 0 0 0 .809h2.015v2.016a.405.405 0 0 0 .809 0v-2.016h2.015a.405.405 0 0 0 0-.809zm0 0"/>
</svg>
